X:029 
T:Carlow Tinker (reel), The
B:CRE4.145 (Ril an TincÃÂÃÂÃÂÃÂ©ara)
F:file ID: cre.4/029carl_t
S:Sheahan MS
N:I added "Carlow" to distinguish this from the
other "Tinker's Reels".
Q:180
L:1/8
M:4/4
R:reel
K:D
"A modal"
gf|eAcA g2 fg|eABA GBdg|eAcA g2 fg|afge d2 gf|
eAcA g2 fg|eABA GBdg|eAcA g2 fg|afge d2:|
cd|eaag eg g2|eaag edcd|eaag eg g2|afge d2 cd|
eaag eg g2|eaag edcd|edcd efge|afge d2:|

%%%

